!!!COM: Claude Goudimel
!!!OMD: Psalm 124: Or peut bien dire Israel
**kern	**kern	**kern	**kern
*part4	*part3	*part2	*part1
*staff4	*staff3	*staff2	*staff1
*clefF4	*clefGv2	*clefG2	*clefG2
*k[b-]	*k[b-]	*k[b-]	*k[b-]
!!LO:TX:omd:t=
*M4/4	*M4/4	*M4/4	*M4/4
=1	=1	=1	=1
2F	2c	2f	2f
4C	4c	4e	4g
4F	4c	4f	4a
=2	=2	=2	=2
2BB-X	2d	2f	2b-X
2F	2c	2f	2a
=3	=3	=3	=3
4C	4c	4e	4g
4D	4A	4d	4f
4BB-X	4B-	4d	4f
4C	4G	4c	4e
=4	=4	=4	=4
2FF	2A	2c	2f
2r	2r	2r	2r
=5	=5	=5	=5
2F	2c	2f	2a
4D	4d	4f	4b-X
4C	4e	4a	4cc
=6	=6	=6	=6
2BB-X	2f	2b-	2dd
2F	2f	2a	2cc
=7	=7	=7	=7
4BB-X	4d	4f	4b-X
4FF	4c	4f	4a
2C	2c	2e	2g
=8	=8	=8	=8
2FF	2A	2c	2f
2C	2G	2c	2e
=9	=9	=9	=9
2r	2r	2r	2r
2FF	2F	2A	2c
=10	=10	=10	=10
4FF	4A	4c	4f
4FF	4A	4c	4f
2C	2G	2c	2e
=11	=11	=11	=11
2D	2F	2A	2f
4C	4E	4c	4g
[4BB-X	[4F	[4d	[4b-X
=12	=12	=12	=12
4BB-]	4F]	4d]	4b-]
4FF	4F	4c	2a
2BB-X	2D	2d	.
.	.	.	4g
=13	=13	=13	=13
2AA	2E	2c#X	2a
2r	2r	2r	2r
=14	=14	=14	=14
2F	2A	2f	2cc
4F	4A	4f	4cc
4BB-X	4d	4f	4b-X
=15	=15	=15	=15
2F	2c	2f	2a
2C	2c	2e	2g
=16	=16	=16	=16
4F	4c	4f	4a
4A	4c	4f	4cc
4G	4d	4g	4cc
4G	4d	4g	4b
=17	=17	=17	=17
2C	2e	2g	2cc
2r	2r	2r	2r
=18	=18	=18	=18
2F	2c	2f	2a
4C	4c	4e	4g
4D	4A	4d	4f
=19	=19	=19	=19
2AA	2A	2c	2e
2D	2A	2d	2f
=20	=20	=20	=20
4C	4c	4e	4g
4GG	4d	2g	4b-X
2AA	2c	.	2a
.	.	[4f	.
=21	=21	=21	=21
2C	2c	4f]	2g
.	.	4e	.
[2FF	[2c	[2f	[2f
=22	=22	=22	=22
2FF]	2c]	2f]	2f]
2ryy	2ryy	2ryy	2ryy
==	==	==	==
*-	*-	*-	*-
!!!software: music21 v.9.7.1
!!!software: music21 v.8.3.0
!!!RDF**kern: > = above
!!!RDF**kern: < = below
